app/dist/common/images/roku.svg

<svg height="18" width="18" xmlns="http://www.w3.org/2000/svg"><path d="m0 0h18v18h-18z" fill="#662d91"/><path d="m9.83 7.288c0-.915-.534-1.86-1.391-1.86h-.439v3.572h.439c.857 0 1.392-.812 1.392-1.712zm.503 6.712-1.666-3.5h-.667v3.5h-3v-10h3.58c2.065 0 3.75 1.475 3.75 3.288 0 1.106-.75 2.095-1.733 2.7l2.403 4.012" fill="#fff"/></svg>

<!-- by TradingView --><svg width="18" height="18" xmlns="http://www.w3.org/2000/svg"><path fill="#662D91" d="M0 0h18v18H0z"/><path d="M9.83 7.288c0-.915-.534-1.86-1.391-1.86H8V9h.439c.857 0 1.392-.812 1.392-1.712H9.83zM10.333 14l-1.666-3.5H8V14H5V4h3.58c2.065 0 3.75 1.475 3.75 3.288 0 1.106-.75 2.095-1.733 2.7L13 14" fill="#fff"/></svg>
